static/img/svg/bx-list-check.svg

<svg xmlns="http://www.w3.org/2000/svg" width="24" height="24" viewBox="0 0 24 24"><path d="M3 5h18v2H3zM3 9h18v2H3zM3 13h9v2H3zM3 17h9v2H3zM15.994 17.583l-1.292-1.291-1.414 1.415 2.706 2.704 5.712-5.703-1.412-1.416z"/></svg>

<svg xmlns="http://www.w3.org/2000/svg" width="24" height="24" viewBox="0 0 24 24"><path d="M3 5H21V7H3zM3 9H21V11H3zM3 13H12V15H3zM3 17H12V19H3zM20.294 13.292l-4.3 4.291-1.292-1.292-1.414 1.415 1.999 1.998c.195.195.451.293.707.293s.512-.098.706-.292l5.006-4.997L20.294 13.292z"/></svg>
